assets/icons/navbar_home_filled.svg

<svg width="25" height="25" viewBox="0 0 25 25" fill="none" xmlns="http://www.w3.org/2000/svg">
<path d="M10.0263 2.72875C10.8521 2.22941 11.6264 1.92993 12.5001 1.92993C13.3738 1.92993 14.148 2.22941 14.9738 2.72875C15.7736 3.21236 16.6876 3.92583 17.8351 4.82151L19.0185 5.74512C20.3944 6.81838 21.2838 7.51215 21.7675 8.50469C22.2511 9.49684 22.2507 10.6265 22.2501 12.3755V14.7076C22.2501 16.5522 22.2501 18.0128 22.097 19.1557C21.9395 20.3315 21.6077 21.283 20.8598 22.0335C20.1115 22.7845 19.1624 23.1179 17.9895 23.2762C16.8501 23.4299 15.3943 23.4299 13.5567 23.4299H11.4435C9.60587 23.4299 8.15009 23.4299 7.01071 23.2762C5.8378 23.1179 4.88864 22.7845 4.14038 22.0335C3.39249 21.283 3.06069 20.3315 2.90317 19.1557C2.75005 18.0128 2.75006 16.5523 2.75008 14.7077L2.75004 12.3755C2.74947 10.6265 2.7491 9.49683 3.23262 8.50469C3.71633 7.51215 4.60576 6.81838 5.9817 5.74512L7.16505 4.8215C8.31252 3.92583 9.22657 3.21236 10.0263 2.72875Z" fill="white" stroke="url(#paint0_linear_605_6124)"/>
<defs>
<linearGradient id="paint0_linear_605_6124" x1="4.50501" y1="4.07993" x2="21.063" y2="19.8779" gradientUnits="userSpaceOnUse">
<stop stop-color="white" stop-opacity="0.3"/>
<stop offset="0.370192" stop-color="white" stop-opacity="0.15"/>
<stop offset="0.721154" stop-color="white" stop-opacity="0.1"/>
<stop offset="1" stop-color="white" stop-opacity="0.3"/>
</linearGradient>
</defs>
</svg>

<svg xmlns="http://www.w3.org/2000/svg" width="25" height="25" fill="none" viewBox="0 0 25 25"><path fill="#fff" stroke="url(#a)" d="M10.026 2.729c.826-.5 1.6-.8 2.474-.8s1.648.3 2.474.8c.8.483 1.714 1.197 2.861 2.093l1.183.923c1.376 1.073 2.266 1.767 2.75 2.76.483.992.483 2.121.482 3.87v2.333c0 1.844 0 3.305-.153 4.448-.158 1.175-.49 2.127-1.237 2.878-.748.75-1.698 1.084-2.87 1.242-1.14.154-2.596.154-4.433.154h-2.113c-1.838 0-3.294 0-4.433-.154-1.173-.158-2.122-.491-2.87-1.242s-1.08-1.703-1.238-2.878c-.153-1.143-.153-2.604-.153-4.448v-2.332c0-1.75 0-2.88.483-3.871.483-.993 1.373-1.687 2.749-2.76l1.183-.923c1.148-.896 2.062-1.61 2.861-2.093Z"/><defs><linearGradient id="a" x1="4.505" x2="21.063" y1="4.08" y2="19.878" gradientUnits="userSpaceOnUse"><stop stop-color="#fff" stop-opacity=".3"/><stop offset=".37" stop-color="#fff" stop-opacity=".15"/><stop offset=".721" stop-color="#fff" stop-opacity=".1"/><stop offset="1" stop-color="#fff" stop-opacity=".3"/></linearGradient></defs></svg>
